X:1
T: Campbell's Frolic
T: 8x32J 3C (RSCDS 15)
P: Campbell's Frolic
C: from John Chambers, arr. T. Traub 11-21-2010
M: 6/8
L: 1/8
%
K: G
D |"G"G>AG "D7"A2d |"G"B3 G2d |"Em"g>fg "A7"eag |"D"f3 d2d | "G"g>fe dcB|
"Am"A>BG "D7"FED |"G"G>AG "D7"A2d |"G"B3 G> :||: ef |"G"g>fg "C"efg |"A7"a>bg "D7"fed |
"Em"g>fg "A7"eag |"D"f3 d>ef |"G"g>fe dcB |"Am"A>BG "D7"FED |"G"G>AG "D7"A2d |"G"B3 G> :|
